images/logos/codingcat.svg

<svg xmlns="http://www.w3.org/2000/svg" viewBox="0 0 512 512" fill="none" xmlns:v="https://vecta.io/nano"><path d="M128.773 201.438c-32.892-39.569-47.084-64.372-50.479-122.126l73.143 77.606-22.664 44.52z" fill="#824b2e"/><path d="M139.075 94.152l-60.781-14.84c14.617 30.45 64.129 84.661 71.598 80.039s51.251-55.954 51.251-55.954l-62.068-9.245z" fill="#0a0a0a"/><path d="M511.485 217.251C510.453 90.784 497.013 42.694 448.644.247c2.348 98.247 15.195 169.078 15.195 169.078s36.121 38.282 47.646 47.926z" fill="#824b2e"/><path d="M128.515 202.654l21.119-43.304 49.706-56.684 7.984-3.892 7.211-4.865s2.833-3.892 0-3.892-5.923.973-5.923.973l-7.727 1.946-7.726 2.433s-1.288.487-1.803 0 0-2.433 0-2.433l1.03-1.703s2.318-1.946 3.863-2.676 26.013-9.245 32.194-10.948 13.134-1.946 20.861-2.189 16.225 0 16.74 0 .515-.973.515-.973 0-.486-.515-.973-22.664-.486-23.179-.73-2.318-.487-2.318-.487-3.09-.487-3.348-.73-.772-1.703 0-2.676 2.318-.73 2.833-1.46 4.121-1.46 4.121-1.46l52.797 1.46 19.573 4.136 23.952 8.028 23.436 11.434h7.212l17.77-8.758 20.861-17.029 18.801-28.464S446.326.246 448.386.003s10.044 14.84 10.044 14.84l10.045 24.814 6.696 45.736 2.06 36.735 2.318 57.9L512 216.764v1.46h-1.288L495.517 204.6l9.529 34.789L512 273.934l-5.151 5.109-26.012 16.786v1.217l8.499-1.946 6.181-.974h7.726c3.606 0 0 6.326 0 6.326s-100.028 98.745-125.682 113.854-67.436 22.46-111.259 33.086h-12.878c-18.784-1.815-29-4.013-46.615-10.218-33.478-16.062-53.074-29.401-89.111-58.873l-18.801-23.598-13.135-20.436c-5.718-10.214-6.439-14.353-6.181-15.569s4.893-6.326 10.559-16.3l8.757-15.813 29.618-83.931z" fill="#000"/><path d="M352.322 321.86c64.55 9.996 92.827 28.774 136.499 74.444-45.926-44.597-74.557-63.553-137.014-73.471l.515-.973zm-17.867 15.327c52.416 9.995 75.378 28.774 110.841 74.443-37.293-44.597-60.542-63.552-111.259-73.47l.418-.973zm-2.204 25.788c34.459 7.316 49.554 21.063 72.868 54.494-24.517-32.646-39.801-46.522-73.143-53.782l.275-.712z" fill="#fff"/><path d="M393.529 238.416c0-31.383-42.237-63.591-72.885-56.928-32.451 7.055-51.328 51.254-50.479 73.714-.084 25.493 16.998 36.83 50.479 37.951 36.314 1.217 72.885-23.355 72.885-54.737z" fill="#c9f180"/><path d="M328.565 180.994c-39.252 5.326-43.009 96.558-11.112 94.856s50.364-100.183 11.112-94.856z" fill="#000"/><ellipse cx="333.846" cy="254.286" rx="3.606" ry="3.406" fill="#fff"/><path d="M178.994 190.49c-22.922 0-40.435 33.572-36.056 68.361 3.349 19.072 15.226 29.172 36.056 26.274 37.05-10.565 33.055-94.635 0-94.635z" fill="#c9f180"/><path d="M177.706 190.49c-28.33 2.919-34.51 85.147-11.589 85.147s39.92-88.067 11.589-85.147z" fill="#000"/><g fill="#fff"><ellipse cx="177.449" cy="254.229" rx="3.606" ry="3.406"/><path d="M136.499 310.913C71.949 320.908 43.672 339.687 0 385.356c45.926-44.597 74.557-63.553 137.014-73.47l-.515-.973zm17.868 15.326c-52.417 9.995-75.378 28.774-110.842 74.443 37.293-44.597 60.543-63.552 111.26-73.47l-.418-.973zm2.203 25.788c-34.459 7.316-49.554 21.063-72.867 54.494 24.516-32.646 39.801-46.522 73.143-53.782l-.275-.712z"/></g><path opacity=".07" d="M280.802 355.453c-12.666 5.672-28.167 48.313-54.867 48.313-35.844 0-52.763-58.387-59.072-63.375.636-.049 1.223-.098 1.859-.098 2.64 0 5.281.441 7.97.441.538 0 1.076 0 1.614-.049 5.966 13.839 38.485 19.804 48.656 19.951 9.731.147 35.404-5.086 39.365-13.594.734 2.102 11.981 8.313 14.475 8.411z" fill="#091427"/><path d="M261.682 376.431c-9.683 13.497-22.397 26.113-37.067 26.113-2.054 0-4.792-.734-8.02-2.152.489-6.063.685-12.763 3.179-18.289 12.127-6.699 35.453-11.002 41.908-5.672z" fill="#c47499"/><path d="M220.85 382.641c-2.494 5.526-3.717 11.688-4.206 17.751-2.983-1.32-6.357-3.276-9.878-5.868 3.961-5.037 8.753-8.949 14.084-11.883z" fill="#ad6585"/><path d="M215.519 360.978c4.45.538 9.291.734 14.524.587 14.181-.391 28.02-3.472 38.142-11.785 2.25 1.614 4.695 2.983 7.189 4.108-3.326 6.259-7.971 14.523-13.644 22.543-16.137-2.543-33.643.147-46.553 9.878-6.161-3.227-7.237-21.321.342-25.331z" fill="#6b3f3c"/><g fill="#8d5548"><path d="M215.519 360.978c-4.303 7.629-4.107 17.213-.342 25.331-3.081 2.347-5.868 5.037-8.362 8.166-12.861-9.438-27.824-27.188-33.692-53.35 7.433 7.628 20.391 17.262 42.396 19.853zm67.679-4.645c-1.956-.294-3.717-1.076-5.428-2.005-.44-.196-.831-.44-1.272-.734-.44-.244-.831-.489-1.222-.782-.831-.489-1.614-1.076-2.445-1.614l-1.174-.88-1.124-.929a25.8 25.8 0 0 0-2.299-1.76l-2.347-1.663-2.445-1.712-.196.147c.294 1.027.783 1.956 1.419 2.787.293.441.635.832.978 1.223l1.075 1.125c.734.684 1.565 1.32 2.445 1.858l1.321.782 1.32.734 2.69 1.369 1.369.587 1.418.538 1.467.489 1.467.391c.978.244 2.005.342 3.032.293v-.244h-.049z"/><path d="M180.653 339.902l-4.89.44-2.396.049-2.347-.244c-1.565-.196-3.081-.832-4.646-1.027-1.564-.245-3.129-.391-4.841-.489l-.098.195c.587.685 1.321 1.223 2.054 1.663s1.565.782 2.347 1.027c1.614.538 3.375.44 5.037.489l2.543-.098c.88-.098 1.663-.244 2.494-.44l4.792-1.32-.049-.245z"/></g><path d="M238.749 311.419c-6.177-.216-18.016 5.943-20.828 5.358s-13.774-10.22-17.005-6.682 1.43 9.545 1.43 9.545c10.247 14.722 8.409 12.404 14.765 17.801l4.633.162s18.549-12.984 21.266-16.54 1.916-9.428-4.261-9.644z" fill="#ffcdcf"/></svg>

<svg xmlns="http://www.w3.org/2000/svg"
  version="1.1" viewBox="0 0 512 512" fill="none">
  <path
    d="M128.773 201.438C95.881 161.869 81.6893 137.066 78.2941 79.312L151.437 156.918L128.773 201.438Z"
    fill="#824B2E"
  />
  <path
    d="M139.075 94.152L78.2941 79.312C92.9113 109.762 142.423 163.973 149.892 159.351C157.36 154.728 201.143 103.397 201.143 103.397L139.075 94.152Z"
    fill="#0A0A0A"
  />
  <path
    d="M511.485 217.251C510.453 90.7841 497.013 42.6939 448.644 0.246582C450.992 98.4933 463.839 169.325 463.839 169.325C463.839 169.325 499.96 207.607 511.485 217.251Z"
    fill="#824B2E"
  />
  <path
    d="M128.515 202.654L149.634 159.35L199.34 102.666L207.324 98.7739L214.535 93.9084C214.535 93.9084 217.368 90.0159 214.535 90.0159C211.702 90.0159 208.612 90.989 208.612 90.989L200.885 92.9353L193.159 95.368C193.159 95.368 191.871 95.8545 191.356 95.368C190.841 94.8816 191.356 92.9353 191.356 92.9353L192.386 91.2323C192.386 91.2323 194.704 89.2861 196.249 88.5563C197.795 87.8264 222.262 79.3117 228.443 77.6087C234.624 75.9057 241.577 75.6624 249.304 75.4192C257.03 75.176 265.529 75.4192 266.044 75.4192C266.559 75.4192 266.559 74.446 266.559 74.446C266.559 74.446 266.559 73.9595 266.044 73.4729C265.529 72.9864 243.38 72.9864 242.865 72.7432C242.35 72.4999 240.547 72.2565 240.547 72.2565C240.547 72.2565 237.457 71.77 237.199 71.5268C236.942 71.2835 236.427 69.8239 237.199 68.8507C237.972 67.8775 239.517 68.1209 240.032 67.391C240.547 66.6611 244.153 65.9314 244.153 65.9314L296.95 67.391L316.523 71.5268L340.475 79.555L363.911 90.989H371.123L388.893 82.231L409.754 65.2015L428.555 36.7379C428.555 36.7379 446.326 0.24619 448.386 0.00291156C450.447 -0.240367 458.43 14.8429 458.43 14.8429L468.475 39.6573L475.171 85.3936L477.231 122.129L479.549 180.029L512 216.764V218.224H510.712L495.517 204.6L505.046 239.389L512 273.934L506.849 279.043L480.837 295.829V297.046L489.336 295.1L495.517 294.126H503.243C506.849 294.126 503.243 300.452 503.243 300.452C503.243 300.452 403.215 399.197 377.561 414.306C351.908 429.415 310.125 436.766 266.302 447.392H253.424C234.64 445.577 224.424 443.379 206.809 437.174C173.331 421.112 153.735 407.773 117.698 378.301L98.8973 354.703L85.7625 334.267C80.0449 324.053 79.3239 319.914 79.5814 318.698C79.839 317.481 84.4748 312.372 90.1408 302.398L98.8973 286.585L128.515 202.654Z"
    fill="black"
  />
  <path
    d="M352.322 321.86C416.872 331.856 445.149 350.634 488.821 396.304C442.895 351.707 414.264 332.751 351.807 322.833L352.322 321.86Z"
    fill="white"
  />
  <path
    d="M334.455 337.187C386.871 347.182 409.833 365.961 445.296 411.63C408.003 367.033 384.754 348.078 334.037 338.16L334.455 337.187Z"
    fill="white"
  />
  <path
    d="M332.251 362.975C366.71 370.291 381.805 384.038 405.119 417.469C380.602 384.823 365.318 370.947 331.976 363.687L332.251 362.975Z"
    fill="white"
  />
  <path
    d="M393.529 238.416C393.529 207.033 351.292 174.825 320.644 181.488C288.193 188.543 269.316 232.742 270.165 255.202C270.081 280.695 287.163 292.032 320.644 293.153C356.958 294.37 393.529 269.798 393.529 238.416Z"
    fill="#C9F180"
  />
  <path
    d="M328.565 180.994C289.313 186.32 285.556 277.552 317.453 275.85C349.35 274.148 367.817 175.667 328.565 180.994Z"
    fill="black"
  />
  <ellipse cx="333.846" cy="254.286" rx="3.60564" ry="3.4059" fill="white" />
  <path
    d="M178.994 190.49C156.072 190.49 138.559 224.062 142.938 258.851C146.287 277.923 158.164 288.023 178.994 285.125C216.044 274.56 212.049 190.49 178.994 190.49Z"
    fill="#C9F180"
  />
  <path
    d="M177.706 190.49C149.376 193.409 143.196 275.637 166.117 275.637C189.038 275.637 206.037 187.57 177.706 190.49Z"
    fill="black"
  />
  <ellipse cx="177.449" cy="254.229" rx="3.60563" ry="3.40589" fill="white" />
  <path
    d="M136.499 310.913C71.9491 320.908 43.6721 339.687 -7.62939e-05 385.356C45.9255 340.759 74.5566 321.803 137.014 311.886L136.499 310.913Z"
    fill="white"
  />
  <path
    d="M154.367 326.239C101.95 336.234 78.9885 355.013 43.5253 400.682C80.8182 356.085 104.068 337.13 154.785 327.212L154.367 326.239Z"
    fill="white"
  />
  <path
    d="M156.57 352.027C122.111 359.343 107.016 373.09 83.7025 406.521C108.219 373.875 123.503 359.999 156.845 352.739L156.57 352.027Z"
    fill="white"
  />
  <path
    opacity="0.07"
    d="M280.802 355.453C268.136 361.125 252.635 403.766 225.935 403.766C190.091 403.766 173.172 345.379 166.863 340.391C167.499 340.342 168.086 340.293 168.722 340.293C171.362 340.293 174.003 340.734 176.692 340.734C177.23 340.734 177.768 340.734 178.306 340.685C184.272 354.524 216.791 360.489 226.962 360.636C236.693 360.783 262.366 355.55 266.327 347.042C267.061 349.144 278.308 355.355 280.802 355.453Z"
    fill="#091427"
  />
  <path
    d="M261.682 376.431C251.999 389.928 239.285 402.544 224.615 402.544C222.561 402.544 219.823 401.81 216.595 400.392C217.084 394.329 217.28 387.629 219.774 382.103C231.901 375.404 255.227 371.101 261.682 376.431Z"
    fill="#C47499"
  />
  <path
    d="M220.85 382.641C218.356 388.167 217.133 394.329 216.644 400.392C213.661 399.072 210.287 397.116 206.766 394.524C210.727 389.487 215.519 385.575 220.85 382.641Z"
    fill="#AD6585"
  />
  <path
    d="M215.519 360.978C219.969 361.516 224.81 361.712 230.043 361.565C244.224 361.174 258.063 358.093 268.185 349.78C270.435 351.394 272.88 352.763 275.374 353.888C272.048 360.147 267.403 368.411 261.73 376.431C245.593 373.888 228.087 376.578 215.177 386.309C209.016 383.082 207.94 364.988 215.519 360.978Z"
    fill="#6B3F3C"
  />
  <path
    d="M215.519 360.978C211.216 368.607 211.412 378.191 215.177 386.309C212.096 388.656 209.309 391.346 206.815 394.475C193.954 385.037 178.991 367.287 173.123 341.125C180.556 348.753 193.514 358.387 215.519 360.978Z"
    fill="#8D5548"
  />
  <path
    d="M283.198 356.333C281.242 356.039 279.481 355.257 277.77 354.328C277.33 354.132 276.939 353.888 276.498 353.594C276.058 353.35 275.667 353.105 275.276 352.812C274.445 352.323 273.662 351.736 272.831 351.198C272.44 350.905 272.048 350.611 271.657 350.318L270.533 349.389C269.799 348.753 269.017 348.166 268.234 347.629L265.887 345.966L263.442 344.254L263.246 344.401C263.54 345.428 264.029 346.357 264.665 347.188C264.958 347.629 265.3 348.02 265.643 348.411C265.985 348.802 266.327 349.193 266.718 349.536C267.452 350.22 268.283 350.856 269.163 351.394L270.484 352.176C270.924 352.421 271.364 352.665 271.804 352.91C272.684 353.399 273.564 353.888 274.494 354.279C274.934 354.475 275.423 354.719 275.863 354.866C276.352 355.061 276.792 355.257 277.281 355.404C277.77 355.55 278.21 355.746 278.748 355.893C279.237 356.039 279.726 356.186 280.215 356.284C281.193 356.528 282.22 356.626 283.247 356.577V356.333H283.198Z"
    fill="#8D5548"
  />
  <path
    d="M180.653 339.902C178.991 340.049 177.377 340.245 175.763 340.342C174.932 340.391 174.15 340.44 173.367 340.391C172.634 340.342 171.802 340.245 171.02 340.147C169.455 339.951 167.939 339.315 166.374 339.12C164.81 338.875 163.245 338.729 161.533 338.631L161.435 338.826C162.022 339.511 162.756 340.049 163.489 340.489C164.223 340.929 165.054 341.271 165.836 341.516C167.45 342.054 169.211 341.956 170.873 342.005C171.705 342.005 172.536 342.005 173.416 341.907C174.296 341.809 175.079 341.663 175.91 341.467C177.524 341.076 179.089 340.636 180.702 340.147L180.653 339.902Z"
    fill="#8D5548"
  />
  <path
    d="M238.749 311.419C232.572 311.203 220.733 317.362 217.921 316.777C215.109 316.191 204.147 306.557 200.916 310.095C197.685 313.634 202.346 319.64 202.346 319.64C212.593 334.362 210.755 332.044 217.111 337.441L221.744 337.603C221.744 337.603 240.293 324.619 243.01 321.063C245.727 317.506 244.926 311.635 238.749 311.419Z"
    fill="#FFCDCF"
  />
</svg>
